X:1
T:Farewell to Whisky
M:3/4
L:1/4
K:F
 D| D G G| G F3/2 G/2| A D E| F G G| A d3/2 d/2| d c A| A F A| c2 A|\
 B c d| d c B| A D E| F G A| B c B| A/2 G3/2 F| G/2 F3/2 D| D2||
